file/mtv.svg

<svg clip-rule="evenodd" fill-rule="evenodd" stroke-linejoin="round" stroke-miterlimit="1.41421" viewBox="0 0 560 400" xmlns="http://www.w3.org/2000/svg"><path d="m47.8-825.4h112.8c12.8 13.4 25.8 26.7 38.7 40.1 12.8-13.4 25.8-26.7 38.6-40.1h113.5v82.6c-.1 1.3.3 2.6-.3 3.8-9.4 15.1-17.5 31-23.6 47.6-.8 1.8-1.5 3.9-3.3 5-1.5.6-3.7.4-4.5-1.2-1.1-2-1-4.3-1.3-6.5-1-8.4-1.9-16.8-3.3-25.2-.8-4.3-1.8-8.9-5-12.1-3-2.9-7.7-3.2-11.6-2.3-3.6.8-7 2.9-8.8 6.1-2.4 4-2.3 8.9-1.5 13.3 1.5 7.8 4.2 15.2 6.9 22.7 5.4 14 10.8 28 16.2 41.9 1.3 3.6 3.5 7.3 7.2 8.9 3.2 1.3 6.8 1.3 10.2.8 2.9-.4 5.5-2.4 6.9-4.9 2.7-4.6 3.8-9.8 5.4-14.8 3.2-10.2 6.3-20.5 10.4-30.4.1 21.8 0 43.5 0 65.3h-70.8c-1-8.1-1.7-16.3-1.2-24.4.1-7.9.4-15.9.3-23.8.2-11.5-1.3-22.9-1.9-34.4-.8-8.9.2-17.9-.6-26.8 6.7-4.1 13.7-7.8 20.4-11.8 4.5-2.8 9.4-5.1 13.3-8.8 2.1-2.1 3.8-5.2 2.5-8.1-2.7-5.4-9.9-8.4-15.7-6-4.7 2.1-7.5 6.8-11.9 9.5-5.4 3.3-10.8 6.5-16.3 9.6-4.2-2.2-9.2-2.9-13.7-1.5-2.5.8-4.7 2.4-5.7 4.8-1.2 2.6-.2 5.6-.7 8.3-.3 1.7-1.7 2.9-3.1 3.7-6.1 3.6-12.3 7-18.4 10.6-6.3 3.6-12.4 7.7-19.4 9.8-4.3 1.2-9.3 2.7-11.4 7-2 4.2.4 9 3.7 11.8 2.9 2.7 7.2 3.2 10.9 2 4.8-1.5 8.7-4.8 12.6-7.7 4.9-3.7 10-7.2 15-10.8 2.7-1.8 5.5-3.8 8.7-4.8 2.2-.8 4.9.1 5.8 2.3 2.2 4.8 1.5 10.1 1.6 15.2.1 16.9-1.4 33.8-2 50.7 0 7.9-.1 15.9.3 23.8-6.3 0-12.5.1-18.8-.1.1-18.7 0-37.4 0-56.2-11.9 9.8-23.7 19.7-35.6 29.5-11.9-9.8-23.7-19.7-35.6-29.5v56.2h-115.9zm123.4 0c11.5 4.9 22.8 9.9 34.3 14.8 1.7.7 2.9 2.3 4.2 3.5-3.4 3.7-7 7.2-10.4 10.9-9.4-9.8-18.8-19.4-28.1-29.2zm187.8-.1c6.3 3.7 12.6 7.4 18.8 11.1v40.9c-6.7 7.2-12.9 14.8-18.7 22.8-.1-24.9-.1-49.9-.1-74.8zm1.4 116.4c5.1-9.4 10.9-18.5 17.3-27.1v111.6h-18.8v-80.1c-.1-1.6.8-3 1.5-4.4zm-189.1 44.5c5.2 4.2 10.3 8.6 15.5 12.8.1 9.1 0 18.1 0 27.2h-15.6c.1-13.4.1-26.7.1-40zm39.2 13.8c5.5-4.6 11-9.2 16.6-13.7 0 3.7.1 7.4-.1 11-1.2.9-2.3 1.8-3.4 2.7-4.4 0-8.7.1-13.1 0z" fill-rule="nonzero" transform="matrix(.995396 0 0 .995396 68.1797 921.7)"/></svg>

<?xml version="1.0" encoding="UTF-8" standalone="no"?>
<!DOCTYPE svg PUBLIC "-//W3C//DTD SVG 1.1//EN" "http://www.w3.org/Graphics/SVG/1.1/DTD/svg11.dtd">
<svg width="100%" height="100%" viewBox="0 0 560 400" version="1.1" xmlns="http://www.w3.org/2000/svg" xmlns:xlink="http://www.w3.org/1999/xlink" xml:space="preserve" xmlns:serif="http://www.serif.com/" style="fill-rule:evenodd;clip-rule:evenodd;stroke-linejoin:round;stroke-miterlimit:1.41421;">
    <g id="black" transform="matrix(0.995396,0,0,0.995396,68.1797,921.7)">
        <path d="M47.8,-825.4L160.6,-825.4C173.4,-812 186.4,-798.7 199.3,-785.3C212.1,-798.7 225.1,-812 237.9,-825.4L351.4,-825.4L351.4,-742.8C351.3,-741.5 351.7,-740.2 351.1,-739C341.7,-723.9 333.6,-708 327.5,-691.4C326.7,-689.6 326,-687.5 324.2,-686.4C322.7,-685.8 320.5,-686 319.7,-687.6C318.6,-689.6 318.7,-691.9 318.4,-694.1C317.4,-702.5 316.5,-710.9 315.1,-719.3C314.3,-723.6 313.3,-728.2 310.1,-731.4C307.1,-734.3 302.4,-734.6 298.5,-733.7C294.9,-732.9 291.5,-730.8 289.7,-727.6C287.3,-723.6 287.4,-718.7 288.2,-714.3C289.7,-706.5 292.4,-699.1 295.1,-691.6C300.5,-677.6 305.9,-663.6 311.3,-649.7C312.6,-646.1 314.8,-642.4 318.5,-640.8C321.7,-639.5 325.3,-639.5 328.7,-640C331.6,-640.4 334.2,-642.4 335.6,-644.9C338.3,-649.5 339.4,-654.7 341,-659.7C344.2,-669.9 347.3,-680.2 351.4,-690.1C351.5,-668.3 351.4,-646.6 351.4,-624.8L280.6,-624.8C279.6,-632.9 278.9,-641.1 279.4,-649.2C279.5,-657.1 279.8,-665.1 279.7,-673C279.9,-684.5 278.4,-695.9 277.8,-707.4C277,-716.3 278,-725.3 277.2,-734.2C283.9,-738.3 290.9,-742 297.6,-746C302.1,-748.8 307,-751.1 310.9,-754.8C313,-756.9 314.7,-760 313.4,-762.9C310.7,-768.3 303.5,-771.3 297.7,-768.9C293,-766.8 290.2,-762.1 285.8,-759.4C280.4,-756.1 275,-752.9 269.5,-749.8C265.3,-752 260.3,-752.7 255.8,-751.3C253.3,-750.5 251.1,-748.9 250.1,-746.5C248.9,-743.9 249.9,-740.9 249.4,-738.2C249.1,-736.5 247.7,-735.3 246.3,-734.5C240.2,-730.9 234,-727.5 227.9,-723.9C221.6,-720.3 215.5,-716.2 208.5,-714.1C204.2,-712.9 199.2,-711.4 197.1,-707.1C195.1,-702.9 197.5,-698.1 200.8,-695.3C203.7,-692.6 208,-692.1 211.7,-693.3C216.5,-694.8 220.4,-698.1 224.3,-701C229.2,-704.7 234.3,-708.2 239.3,-711.8C242,-713.6 244.8,-715.6 248,-716.6C250.2,-717.4 252.9,-716.5 253.8,-714.3C256,-709.5 255.3,-704.2 255.4,-699.1C255.5,-682.2 254,-665.3 253.4,-648.4C253.4,-640.5 253.3,-632.5 253.7,-624.6C247.4,-624.6 241.2,-624.5 234.9,-624.7C235,-643.4 234.9,-662.1 234.9,-680.9C223,-671.1 211.2,-661.2 199.3,-651.4C187.4,-661.2 175.6,-671.1 163.7,-680.9L163.7,-624.7L47.8,-624.7L47.8,-825.4ZM171.2,-825.4C182.7,-820.5 194,-815.5 205.5,-810.6C207.2,-809.9 208.4,-808.3 209.7,-807.1C206.3,-803.4 202.7,-799.9 199.3,-796.2C189.9,-806 180.5,-815.6 171.2,-825.4ZM359,-825.5C365.3,-821.8 371.6,-818.1 377.8,-814.4L377.8,-773.5C371.1,-766.3 364.9,-758.7 359.1,-750.7C359,-775.6 359,-800.6 359,-825.5ZM360.4,-709.1C365.5,-718.5 371.3,-727.6 377.7,-736.2L377.7,-624.6L358.9,-624.6L358.9,-704.7C358.8,-706.3 359.7,-707.7 360.4,-709.1ZM171.3,-664.6C176.5,-660.4 181.6,-656 186.8,-651.8C186.9,-642.7 186.8,-633.7 186.8,-624.6L171.2,-624.6C171.3,-638 171.3,-651.3 171.3,-664.6ZM210.5,-650.8C216,-655.4 221.5,-660 227.1,-664.5C227.1,-660.8 227.2,-657.1 227,-653.5C225.8,-652.6 224.7,-651.7 223.6,-650.8C219.2,-650.8 214.9,-650.7 210.5,-650.8Z" style="fill-rule:nonzero;"/>
    </g>
</svg>
